build/logo/DockerOutline.svg

<svg xmlns="http://www.w3.org/2000/svg" fill="none" viewBox="0 0 24 24" focusable="false"><path d="M0 0H24V24H0z"/><path fill="#74767B" fill-rule="evenodd" d="M9.5543 3.54248C9.19531 3.54248 8.9043 3.8335 8.9043 4.19248L8.9043 8.00806L5.08848 8.00806C4.72949 8.00806 4.43848 8.29907 4.43848 8.65806L4.43848 12.4717L3.20469 12.4717C2.8457 12.4717 2.55469 12.7627 2.55469 13.1217C2.55469 15.1737 3.21968 17.1228 4.5042 18.5675C5.7971 20.0217 7.68533 20.9268 10.0402 20.9268C15.3039 20.9268 17.9279 17.4537 19.1335 15.4772C19.5285 15.4333 20.0076 15.3439 20.4808 15.124C21.0687 14.8507 21.5179 14.3532 21.8 13.9797C21.9748 13.7482 22.1366 13.5052 22.2693 13.2469L22.2698 13.2459C22.4009 12.9888 22.3469 12.6759 22.1371 12.4778L22.1356 12.4764L22.133 12.474C21.9799 12.3313 21.8184 12.1971 21.6525 12.0696C21.3876 11.8659 20.9895 11.5895 20.5868 11.4505C20.2941 11.3495 19.9676 11.3266 19.7265 11.3243C19.6512 11.0957 19.5336 10.8302 19.3505 10.5738C19.1127 10.2408 18.6616 9.86118 18.3366 9.60338C18.1228 9.4339 17.9049 9.26913 17.6817 9.11228C17.5273 9.00413 17.3336 8.96831 17.1507 9.01412C16.9679 9.05993 16.8139 9.18285 16.7288 9.35101C16.6278 9.55104 16.5324 9.75406 16.4402 9.95826C16.2886 10.2938 16.0986 10.7437 15.9916 11.1196C15.8656 11.5622 15.8208 12.0369 15.8447 12.4717L14.67 12.4717L14.67 4.19248C14.67 3.8335 14.379 3.54248 14.02 3.54248L9.5543 3.54248ZM13.37 8.00806L13.37 4.84248L10.2043 4.84248L10.2043 8.00806L13.37 8.00806ZM10.2043 9.30816L13.37 9.30816L13.37 12.4717L10.2043 12.4717L10.2043 9.30816ZM5.73848 12.4717L8.90415 12.4717L8.90415 9.30806L5.73848 9.30806L5.73848 12.4717ZM3.88073 13.7717L9.50225 13.7717C9.51942 13.773 9.53678 13.7737 9.5543 13.7737L14.02 13.7737C14.0375 13.7737 14.0548 13.773 14.072 13.7717L16.6168 13.7717C16.8274 13.7717 17.0249 13.6696 17.1468 13.4979C17.2687 13.3262 17.2999 13.106 17.2304 12.9072C17.1245 12.6042 17.088 12.0163 17.2419 11.4755C17.3091 11.2394 17.4316 10.9325 17.5576 10.6448C17.8888 10.9093 18.1805 11.1724 18.2927 11.3294C18.5172 11.6437 18.5598 12.0113 18.5633 12.0493C18.5964 12.4174 18.9265 12.6895 19.2981 12.6455C19.5721 12.613 19.8979 12.588 20.1626 12.6794C20.3516 12.7446 20.6037 12.9046 20.8426 13.0867C20.6047 13.423 20.3129 13.7685 19.9328 13.9451C19.5392 14.128 19.1094 14.1816 18.6995 14.2109C18.4861 14.2261 18.2939 14.3454 18.1854 14.5299C17.119 16.3444 14.8396 19.6268 10.0402 19.6268C8.0418 19.6268 6.51226 18.8696 5.47572 17.7038C4.55956 16.6733 4.00378 15.2945 3.88073 13.7717Z"/></svg>

<svg xmlns="http://www.w3.org/2000/svg" fill="none" viewBox="0 0 24 24" focusable="false"><path fill="#74767B" fill-rule="evenodd" d="M9.55 3.54c-.36 0-.65.29-.65.65V8H5.08c-.36 0-.65.29-.65.65v3.82H3.2c-.36 0-.65.29-.65.65 0 2.05.66 4 1.95 5.44 1.29 1.46 3.18 2.36 5.54 2.36 5.26 0 7.88-3.47 9.09-5.45.39-.04.87-.13 1.35-.35.58-.27 1.03-.77 1.31-1.15.18-.23.34-.47.47-.73h.01c.13-.26.07-.57-.14-.77-.15-.14-.32-.28-.48-.41-.27-.2-.67-.48-1.07-.61-.29-.11-.62-.13-.86-.13-.07-.23-.19-.49-.37-.75-.24-.33-.69-.71-1.02-.97-.21-.17-.43-.34-.65-.49a.63.63 0 0 0-.53-.1c-.19.04-.34.17-.43.34-.1.2-.19.4-.29.6-.15.34-.34.79-.44 1.16-.13.45-.17.92-.15 1.36h-1.18V4.19c0-.36-.29-.65-.64-.65zM13.37 8V4.84H10.2V8zM10.2 9.3h3.17v3.17H10.2zm-4.47 3.17H8.9V9.3H5.73zm-1.85 1.3h12.73c.21 0 .41-.11.53-.28s.15-.39.09-.59c-.11-.3-.15-.89.01-1.43.06-.24.19-.54.31-.83.33.26.63.53.74.68.22.32.27.69.27.72.03.37.36.64.73.6.28-.03.6-.06.87.03.19.07.44.23.68.41-.24.34-.53.68-.91.86-.4.18-.83.24-1.24.27-.21.01-.4.13-.51.31-1.07 1.82-3.35 5.1-8.14 5.1-2 0-3.53-.76-4.57-1.92-.92-1.03-1.47-2.41-1.59-3.93"/></svg>
